X:485
T:a Rigadoon
A:Wyresdale, Lancashire
B:E and J Winder, 1835-41
L:1/4
M:6/4
O:England
Z:Richard Robinson 
%%RRN:"A Good One"
%%TUNEURL: http://www.leeds.ac.uk/music/Info/RRTuneBk/gettune/00000ed4.html
%%ID:00000ed4
K:A min
c/d/ |\
e>fe d>cB | c2A E2A/B/ | c>Bc d>cd | e3-e2 ::
g>ag f2e  | f2d A2d/e/ | f>gf e>dB | \
e2^G E2c/d/ | e>dc B2A | A3-A2 ::
